!!!OTL: ICH KAM EINMAL ZUR STADT HINEIN
!!!ARE: Europa, Mitteleuropa, Deutschland, Pommern
!!!SCT: Z0153
!!!YEM: Copyright 1995, estate of Helmut Schaffrath.
**kern
*ICvox
*Ivox
*M4/4
*k[f#c#g#]
*A:
{4e
=1
4a
4a
4a
4b
=2
4cc#
4cc#
4cc#}
{8cc#
8dd
=3
8ee
8ee
8ee
8ee
8ff#
8ee
8dd
8cc#
=4
8cc#
8b
4b
4b
8r}
{8cc#
=5
8ee
8ee
8ee
8ee
8ff#
8ff#
8r
8dd
=6
8dd
8dd
8dd
8dd
4ee
8r}
{8e
=7
8a
8b
8cc#
8dd
8ee
8aa
8ff#
8dd
=8
8cc#
8cc#
8b
8b
4a}
==
!!!AGN: Erzaehlung, lustige Romanze, Gesellen - Lied
!!!ONB: ESAC (Essen Associative Code) Database: ZUCCAL
!!!AMT: simple quadruple
!!!AIN: vox
!!!EED: Helmut Schaffrath
!!!EEV: 1.0
*-
